apps/www/public/images/launchweek/lwx/logos/lwx_logo.svg

<svg width="160" height="160" viewBox="0 0 160 160" fill="none" xmlns="http://www.w3.org/2000/svg">
<path fill-rule="evenodd" clip-rule="evenodd" d="M119.881 0.275879H159.749V40.1517H119.881H119.874H80.0055L119.874 0.283661V0.275879H119.881ZM119.874 40.1522H159.749L119.874 80.028V40.1522ZM0.25 119.904H40.1219L40.1258 119.904H79.9977L40.1258 159.776V159.78H40.1219H0.250003L0.25 119.904ZM40.1258 119.903H0.250003L40.1258 80.0275L40.1258 119.903Z" fill="#D9D9D9"/>
<path fill-rule="evenodd" clip-rule="evenodd" d="M40.1258 0.279774L79.9977 40.1517L40.1258 40.1517H0.25V0.275896L40.1219 0.275879L40.1258 0.275896V0.279774ZM79.9977 40.1522H40.1258H40.1219H0.25L40.1219 80.0241V80.027V80.028H40.1229L79.9977 119.903V80.028V80.027V40.1522ZM119.881 80.027H119.88L80.0055 40.1522V80.027V80.028V119.903H119.874V119.903H159.749L119.881 80.0353V80.028V80.027ZM119.877 159.78H119.874V159.776L80.0016 119.904H119.874L119.877 119.904H159.749V159.78H119.877Z" fill="#D9D9D9"/>
</svg>

<svg xmlns="http://www.w3.org/2000/svg" width="160" height="160" fill="none" viewBox="0 0 160 160"><path fill="#d9d9d9" fill-rule="evenodd" d="M119.881.276h39.868v39.876H80.006L119.874.284V.276zm-.007 39.876h39.875l-39.875 39.876zM.25 119.904h79.748l-39.872 39.872v.004H.25zm39.876-.001H.25l39.876-39.875z" clip-rule="evenodd"/><path fill="#d9d9d9" fill-rule="evenodd" d="m40.126.28 39.872 39.872H.25V.276h39.876zm39.872 39.872H.25l39.872 39.872v.004l39.876 39.875V40.152m39.883 39.875h-.001L80.006 40.152v79.751h79.743l-39.868-39.868v-.008m-.004 79.753h-.003v-.004l-39.872-39.872h79.747v39.876z" clip-rule="evenodd"/></svg>
